X: 27
T: Congress, The
C: Joe Mills
Z: Sean Perry
S: https://thesession.org/tunes/208#setting50817
R: reel
M: 4/4
L: 1/8
K: Ador
|:eAAG A2 B/c/d|eaaf gedg|eA c/B/A eA c/B/A|BAGA Bcdg|
eAAG A2 B/c/d|eaaf gedB|cBcd eged|cABG ABcd:|
|:eaag abag|eaag egdg|egdg egdg|eaaf gedg|
eaag abag|eaaf gedB|cBcd eged|cABG ABcd:|

